assets/icons/refresh.svg

<svg width="24" height="24" viewBox="0 0 24 24" fill="none" xmlns="http://www.w3.org/2000/svg">
<path d="M13 7.101L13.01 7.102C13.9675 7.29819 14.846 7.77188 15.536 8.464C16.2275 9.15542 16.7014 10.0343 16.899 10.992C17.0339 11.6573 17.0335 12.3429 16.898 13.008C16.7018 13.966 16.2278 14.8449 15.535 15.535L16.949 16.949C17.9169 15.9805 18.5802 14.7499 18.857 13.409C19.0487 12.4791 19.0487 11.5199 18.857 10.59C18.5835 9.24838 17.9201 8.0173 16.95 7.051C16.3131 6.41182 15.5581 5.90239 14.727 5.551C14.3033 5.37163 13.8628 5.23495 13.412 5.143C13.275 5.115 13.137 5.1 13 5.08V2L9.00001 6L13 10V7.101ZM5.55001 14.724C5.72401 15.136 5.94201 15.536 6.19601 15.914C6.44501 16.284 6.73301 16.632 7.05001 16.948C7.68819 17.5864 8.44325 18.096 9.27401 18.449C9.69901 18.629 10.142 18.766 10.589 18.857C10.756 18.891 10.927 18.913 11.097 18.935V21.879L15.097 17.879L11.097 13.879V16.909C11.062 16.903 11.025 16.906 10.99 16.898C10.0326 16.7018 9.15405 16.2281 8.46401 15.536C7.99907 15.072 7.63023 14.5209 7.3786 13.9142C7.12697 13.3075 6.99749 12.6571 6.99758 12.0003C6.99768 11.3435 7.12734 10.6931 7.37914 10.0865C7.63094 9.47983 7.99994 8.92882 8.46501 8.465L7.05101 7.05C6.4125 7.68786 5.90318 8.44302 5.55101 9.274C5.18618 10.1365 4.99879 11.0636 5.00001 12C4.99937 12.9356 5.18639 13.8619 5.55001 14.724Z" fill="#FFCB8F"/>
</svg>

<svg width="24" height="24" fill="none" xmlns="http://www.w3.org/2000/svg"><path d="m13 7.101.01.001a5.005 5.005 0 0 1 3.889 3.89 5.06 5.06 0 0 1-.001 2.016 4.976 4.976 0 0 1-1.363 2.527l1.414 1.414a7.014 7.014 0 0 0 1.908-3.54 6.98 6.98 0 0 0 0-2.819 6.956 6.956 0 0 0-1.907-3.539 6.97 6.97 0 0 0-3.538-1.908c-.137-.028-.275-.043-.412-.063V2L9 6l4 4V7.101zm-7.45 7.623c.174.412.392.812.646 1.19a7.034 7.034 0 0 0 3.078 2.535c.425.18.868.317 1.315.408.167.034.338.056.508.078v2.944l4-4-4-4v3.03c-.035-.006-.072-.003-.107-.011a4.978 4.978 0 0 1-2.526-1.362 4.995 4.995 0 0 1 .001-7.071L7.051 7.05A6.974 6.974 0 0 0 5 12c0 .936.186 1.862.55 2.724z" fill="#FFCB8F"/></svg>
